src/assets/svg/icons/fa/nuevos/classic/duotone/circle-waveform-lines classic duotone.svg

<svg xmlns="http://www.w3.org/2000/svg" viewBox="0 0 512 512"><!--! Font Awesome Pro 6.4.0 by @fontawesome - https://fontawesome.com License - https://fontawesome.com/license (Commercial License) Copyright 2023 Fonticons, Inc. --><defs><style>.fa-secondary{opacity:.4}</style></defs><path class="fa-primary" d="M272 128c8.8 0 16 7.2 16 16V368c0 8.8-7.2 16-16 16s-16-7.2-16-16V144c0-8.8 7.2-16 16-16zM144 160c8.8 0 16 7.2 16 16V336c0 8.8-7.2 16-16 16s-16-7.2-16-16V176c0-8.8 7.2-16 16-16zm192 24c8.8 0 16 7.2 16 16V312c0 8.8-7.2 16-16 16s-16-7.2-16-16V200c0-8.8 7.2-16 16-16zM208 200c8.8 0 16 7.2 16 16v80c0 8.8-7.2 16-16 16s-16-7.2-16-16V216c0-8.8 7.2-16 16-16zm192 24c8.8 0 16 7.2 16 16v32c0 8.8-7.2 16-16 16s-16-7.2-16-16V240c0-8.8 7.2-16 16-16z"/><path class="fa-secondary" d="M256 512A256 256 0 1 0 256 0a256 256 0 1 0 0 512zm32-368V368c0 8.8-7.2 16-16 16s-16-7.2-16-16V144c0-8.8 7.2-16 16-16s16 7.2 16 16zM160 176V336c0 8.8-7.2 16-16 16s-16-7.2-16-16V176c0-8.8 7.2-16 16-16s16 7.2 16 16zm192 24V312c0 8.8-7.2 16-16 16s-16-7.2-16-16V200c0-8.8 7.2-16 16-16s16 7.2 16 16zM224 216v80c0 8.8-7.2 16-16 16s-16-7.2-16-16V216c0-8.8 7.2-16 16-16s16 7.2 16 16zm192 24v32c0 8.8-7.2 16-16 16s-16-7.2-16-16V240c0-8.8 7.2-16 16-16s16 7.2 16 16z"/></svg>

<svg xmlns="http://www.w3.org/2000/svg" viewBox="0 0 512 512"><defs><style>.fa-secondary{opacity:.4}</style></defs><path class="fa-primary" d="M144 160C135.2 160 128 167.2 128 176v160C128 344.8 135.2 352 144 352S160 344.8 160 336v-160C160 167.2 152.8 160 144 160zM272 136c-8.836 0-16 7.162-16 16v208c0 8.836 7.164 16 16 16s16-7.164 16-16v-208C288 143.2 280.8 136 272 136zM208 200C199.2 200 192 207.2 192 216v80c0 8.836 7.164 16 16 16S224 304.8 224 296v-80C224 207.2 216.8 200 208 200zM400 224C391.2 224 384 231.2 384 240v32C384 280.8 391.2 288 400 288S416 280.8 416 272v-32C416 231.2 408.8 224 400 224zM336 184c-8.836 0-16 7.162-16 16v112c0 8.836 7.164 16 16 16s16-7.164 16-16v-112C352 191.2 344.8 184 336 184z"/><path class="fa-secondary" d="M256 0C114.6 0 0 114.6 0 256s114.6 256 256 256s256-114.6 256-256S397.4 0 256 0zM160 336C160 344.8 152.8 352 144 352S128 344.8 128 336v-160C128 167.2 135.2 160 144 160S160 167.2 160 176V336zM224 296c0 8.836-7.164 16-16 16S192 304.8 192 296v-80c0-8.838 7.164-16 16-16S224 207.2 224 216V296zM288 360c0 8.836-7.164 16-16 16s-16-7.164-16-16v-208c0-8.838 7.164-16 16-16S288 143.2 288 152V360zM352 312c0 8.836-7.164 16-16 16S320 320.8 320 312v-112c0-8.838 7.164-16 16-16S352 191.2 352 200V312zM416 272C416 280.8 408.8 288 400 288S384 280.8 384 272v-32C384 231.2 391.2 224 400 224S416 231.2 416 240V272z"/></svg>
